.local/share/icons/Gruvbox-Plus-Dark/panel/24/cisco-tray-connected.svg

<svg xmlns="http://www.w3.org/2000/svg" width="24" height="24" version="1.1">
 <defs>
  <style id="current-color-scheme" type="text/css">
   .ColorScheme-Text { color:#ebdbb2; } .ColorScheme-Highlight { color:#458588; }
  </style>
 </defs>
 <path style="fill:currentColor" class="ColorScheme-Text" d="M 12,4 C 9.009725,4 6.4180719,5.6269634 5.0449219,8.0449219 6.2107109,7.3828743 7.558275,7 9,7 c 0.524759,0 1.037157,0.052885 1.533203,0.1484375 0.0018,-0.00466 0.0041,-0.00902 0.0059,-0.013672 0.109049,-0.2835808 0.233686,-0.5574434 0.373047,-0.8242187 0.0129,-0.024874 0.02592,-0.049498 0.03906,-0.074219 0.127806,-0.238484 0.267456,-0.4682357 0.417969,-0.6914062 0.02988,-0.044688 0.05714,-0.090725 0.08789,-0.1347657 0.151973,-0.215866 0.314284,-0.4236254 0.486328,-0.6230468 0.02804,-0.032693 0.05347,-0.067383 0.08203,-0.099609 C 12.229896,4.457986 12.444498,4.2379308 12.673828,4.0332031 12.45122,4.0147621 12.227527,4 12,4 Z m 3.226562,0.6777344 c -0.289386,0.1504875 -0.560133,0.3292648 -0.818359,0.5234375 -0.06417,0.047973 -0.123414,0.1018974 -0.185547,0.1523437 -0.214183,0.1751328 -0.419783,0.3614802 -0.607422,0.5644532 -0.02986,0.032021 -0.06068,0.06303 -0.08984,0.095703 -0.457517,0.5172888 -0.829449,1.1116662 -1.089844,1.765625 1.928051,0.9151663 3.413906,2.5813972 4.115234,4.6191412 C 16.980802,12.151829 17.470568,12 18,12 c 0.750595,0 1.426039,0.292965 1.949219,0.757812 C 19.973234,12.507244 20,12.257287 20,12 20,8.7183319 18.041258,5.9142825 15.226562,4.6777344 Z M 9,9 C 6.920529,9 5.0933101,10.046465 4.0175781,11.644531 4.0123781,11.76324 4,11.87997 4,12 c 0,4.432 3.568,8 8,8 0.119372,0 0.235451,-0.01245 0.353516,-0.01758 l 0.002,0 C 13.013286,19.539584 13.564301,18.959751 14,18.296875 l 0,-1.392578 c -0.119225,-0.0696 -0.245649,-0.127996 -0.361328,-0.203125 -0.03237,-0.021 -0.06366,-0.043 -0.0957,-0.06445 -0.285849,-0.191584 -0.560432,-0.397127 -0.81836,-0.623047 -0.0031,-0.0027 -0.0066,-0.0051 -0.0098,-0.0078 -0.261357,-0.229614 -0.505115,-0.478562 -0.734375,-0.740234 -0.03115,-0.0355 -0.06127,-0.07137 -0.0918,-0.107422 -0.209976,-0.248385 -0.407211,-0.506126 -0.585938,-0.779297 -0.01292,-0.01971 -0.02632,-0.03876 -0.03906,-0.05859 -0.181167,-0.282329 -0.341251,-0.57938 -0.486328,-0.884765 -0.02795,-0.05873 -0.05353,-0.118216 -0.08008,-0.177735 -0.131227,-0.294674 -0.250319,-0.595729 -0.345703,-0.908203 -0.0065,-0.02114 -0.01519,-0.04128 -0.02148,-0.0625 -0.09544,-0.322294 -0.164079,-0.655937 -0.21875,-0.99414 -0.01282,-0.07917 -0.02467,-0.158327 -0.03516,-0.238281 C 10.030924,10.708992 10,10.358483 10,10 10,9.694348 10.01754,9.394017 10.05078,9.097656 9.7092773,9.037718 9.359197,9 9,9 Z m 3.013672,0.8125 C 12.011672,9.87577 12,9.936238 12,10 c 0,0.248781 0.01965,0.491853 0.04883,0.732422 0.0089,0.07358 0.02169,0.146032 0.0332,0.21875 0.02793,0.17572 0.0627,0.349374 0.105469,0.519531 0.01772,0.07068 0.0345,0.141289 0.05469,0.210938 0.0659,0.226739 0.141381,0.449467 0.232421,0.664062 0.0966,0.2277 0.209115,0.446117 0.332032,0.658203 0.01642,0.02842 0.03391,0.05586 0.05078,0.08399 0.115562,0.192026 0.241224,0.377564 0.376953,0.554687 0.01328,0.01738 0.02559,0.03551 0.03906,0.05273 0.306563,0.391105 0.659422,0.742732 1.052734,1.046876 0.01616,0.01252 0.03254,0.02475 0.04883,0.03711 0.105246,0.07968 0.21957,0.147583 0.330078,0.220703 L 15,15 C 15,12.777172 13.80056,10.849313 12.013672,9.8125 Z M 18,13 c -1.108,0 -2,0.9109 -2,2.03125 L 16,16 l -1,0 0,4 6,0 0,-4 -1,0 0,-0.96875 C 20,13.91135 19.108,13 18,13 Z m 0,1 c 0.554,0 1,0.4424 1,1 l 0,1 -2,0 0,-1 c 0,-0.5576 0.446,-1 1,-1 z"/>
</svg>

<svg width="24" height="24" version="1.1" xmlns="http://www.w3.org/2000/svg">
  <defs>
    <style id="current-color-scheme" type="text/css">.ColorScheme-Text { color:#ebdbb2; } .ColorScheme-Highlight { color:#458588; } .ColorScheme-NeutralText { color:#fe8019; } .ColorScheme-PositiveText { color:#689d6a; } .ColorScheme-NegativeText { color:#fb4934; }</style>
  </defs>
  <path class="ColorScheme-Text" d="m12 4c-2.99 0-5.582 1.627-6.955 4.045 1.166-0.662 2.513-1.045 3.955-1.045 0.9772 0 1.532 0.1424 1.539 0.1348 0.52-1.353 1.371-2.42 2.135-3.102-0.2226-0.01844-0.4463-0.0332-0.6738-0.0332zm3.227 0.6777c-0.5409 0.2813-2.034 1.201-2.791 3.102 1.924 0.9131 3.418 2.568 4.121 4.6 0.4415-0.2459 0.938-0.3762 1.443-0.3789 0.7211 3.15e-4 1.418 0.2603 1.963 0.7324 0.02221-0.2412 0.03711-0.485 0.03711-0.7324 0-3.282-1.959-6.086-4.773-7.322zm-6.227 4.322c-2.079 0-3.907 1.046-4.982 2.645-0.0052 0.1187-0.01758 0.2354-0.01758 0.3555 0 4.432 3.568 8 8 8 0.1194 0 0.2354-0.01245 0.3535-0.01758h2e-3c0.6525-0.4393 1.21-1.006 1.644-1.662v-1.4c-2.334-1.364-4.356-4.194-3.949-7.822-0.7268-0.1276-1.142-0.08849-1.051-0.09766zm3.014 0.8125c-0.05523 1.747 0.6832 3.877 2.676 5.188h0.2969c-0.0026-0.9456-0.2578-3.612-2.973-5.188zm5.986 3.188c-1.108 0-2 0.9112-2 2.031v0.9688h-1v4h6v-4h-1v-0.9688c0-1.12-0.892-2.031-2-2.031zm0 1c0.554 0 1 0.4424 1 1v1h-2v-1c0-0.5576 0.446-1 1-1z" fill="currentColor"/>
</svg>
